svg/muteWord.svg

<svg width="284" height="284" viewBox="0 0 284 284" fill="none" xmlns="http://www.w3.org/2000/svg">
<path fill-rule="evenodd" clip-rule="evenodd" d="M181.252 130.75C191.723 130.75 193.677 135.915 193.677 139.545V140.522C183.266 140.462 174.392 142.015 167.657 145.216L179.092 156.65C182.691 154.501 188.14 153.706 194.375 153.784V161.183C194.375 162.44 194.235 163.696 193.955 164.812C193.459 166.353 192.584 167.783 191.433 168.992L208.474 186.032H216.013C215.315 182.263 215.035 175.98 215.035 169.42V145.688C215.035 129.634 207.775 116.232 185.021 116.232C172.597 116.232 163.244 119.582 158.497 122.235L162.406 135.915C166.874 133.123 174.272 130.75 181.252 130.75Z" fill="#1A1919"/>
<path fill-rule="evenodd" clip-rule="evenodd" d="M208.362 46.3053C202.256 50.7273 196.191 55.1873 190.388 59.9673C218.279 76.5673 237.011 107.017 237.011 141.763C237.011 163.839 229.451 184.18 216.785 200.339L83.3352 66.8893C97.8602 55.5063 115.753 48.2303 135.259 46.8803C137.451 46.7283 139.662 46.6453 141.893 46.6453C159.594 46.6453 176.178 51.5113 190.388 59.9673C196.191 55.1873 202.256 50.7273 208.362 46.3053C189.519 33.1603 166.609 25.4453 141.893 25.4453C141.513 25.4453 141.136 25.4563 140.756 25.4593C77.0402 26.0703 25.5732 77.9033 25.5732 141.763C25.5732 170.261 35.8282 196.361 52.8402 216.587C56.6112 209.999 60.7652 203.563 64.3892 196.847C53.3022 181.294 46.7732 162.276 46.7732 141.763C46.7732 121.311 53.2652 102.348 64.2922 86.8213L196.837 219.367C181.309 230.393 162.344 236.882 141.893 236.882C109.957 236.882 81.6472 221.062 64.3892 196.847C60.7652 203.563 56.6112 209.999 52.8402 216.587C74.1782 241.956 106.149 258.082 141.893 258.082C206.133 258.082 258.211 206.005 258.211 141.763C258.211 102.239 238.492 67.3253 208.362 46.3053Z" fill="#1A1919"/>
<path fill-rule="evenodd" clip-rule="evenodd" d="M129.119 107.939L125.033 94.7613H115.941L129.119 107.939Z" fill="#1A1919"/>
<path fill-rule="evenodd" clip-rule="evenodd" d="M117.44 145.966H99.172L103.165 131.691L88.449 116.975L67.342 186.032H89.4L96.1 161.881H123.043L130.302 186.032H153.197L151.26 179.786L117.44 145.966Z" fill="#1A1919"/>
</svg>

<svg width="284" height="284" viewBox="0 0 284 284" xmlns="http://www.w3.org/2000/svg">
    <g fill="#1A1918" fill-rule="evenodd">
        <path d="M181.252 130.75c10.47 0 12.425 5.165 12.425 8.795v.977c-10.411-.06-19.285 1.493-26.02 4.694l11.435 11.434c3.599-2.15 9.048-2.944 15.283-2.866v7.399c0 1.257-.14 2.513-.42 3.629-.496 1.54-1.371 2.97-2.522 4.18l17.04 17.04h7.54c-.698-3.77-.978-10.052-.978-16.612v-23.732c0-16.054-7.26-29.456-30.014-29.456-12.424 0-21.777 3.35-26.524 6.003l3.909 13.68c4.468-2.792 11.866-5.165 18.846-5.165"/>
        <path d="M208.362 46.305c-6.106 4.422-12.17 8.882-17.974 13.662 27.891 16.6 46.623 47.05 46.623 81.796 0 22.076-7.56 42.417-20.226 58.576L83.335 66.89C97.86 55.506 115.753 48.23 135.26 46.88a95.851 95.851 0 0 1 6.634-.235c17.701 0 34.285 4.866 48.495 13.322 5.803-4.78 11.868-9.24 17.974-13.662-18.843-13.145-41.753-20.86-66.469-20.86-.38 0-.757.011-1.137.014C77.04 26.07 25.573 77.903 25.573 141.763c0 28.498 10.255 54.598 27.267 74.824 3.771-6.588 7.925-13.024 11.55-19.74-11.088-15.553-17.617-34.57-17.617-55.084 0-20.452 6.492-39.415 17.52-54.942l132.544 132.546c-15.528 11.026-34.493 17.515-54.944 17.515-31.936 0-60.246-15.82-77.504-40.035-3.624 6.716-7.778 13.152-11.549 19.74 21.338 25.37 53.31 41.495 89.053 41.495 64.24 0 116.318-52.077 116.318-116.319 0-39.524-19.719-74.438-49.849-95.458"/>
        <polygon points="129.1186 107.9393 125.0326 94.7613 115.9406 94.7613"/>
        <polygon points="117.4401 145.9659 99.1721 145.9659 103.1651 131.6909 88.4491 116.9749 67.3421 186.0319 89.4001 186.0319 96.1001 161.8809 123.0431 161.8809 130.3021 186.0319 153.1971 186.0319 151.2601 179.7859"/>
    </g>
</svg>
